theme/assets/images/sponsors/coremedia.svg

<?xml version="1.0" standalone="no"?><!DOCTYPE svg PUBLIC "-//W3C//DTD SVG 1.1//EN" "http://www.w3.org/Graphics/SVG/1.1/DTD/svg11.dtd"><svg width="100%" height="100%" viewBox="0 0 327 85" version="1.1" xmlns="http://www.w3.org/2000/svg" xmlns:xlink="http://www.w3.org/1999/xlink" xml:space="preserve" style="fill-rule:evenodd;clip-rule:evenodd;stroke-linejoin:round;stroke-miterlimit:1.41421;"><g><path d="M302.025,12.715l0,10.709l2.75,0l0,-7.959l3.155,0l0,7.959l2.75,0l0,-7.959l3.124,0l0,7.959l2.75,0l0,-8.416c6.287,7.364 10.082,16.919 10.082,27.361c0,23.286 -18.876,42.163 -42.162,42.163c-23.286,0 -42.163,-18.877 -42.163,-42.163c0,-23.286 18.877,-42.163 42.163,-42.163c11.724,0 22.33,4.786 29.973,12.509l-12.422,0ZM302.115,35.351l0,-8.276l-30.707,0l-8.19,8.19l0,17.613l8.19,8.191l30.707,0l0,-8.39l-27.72,0l-2.37,-2.371l0,-12.586l2.37,-2.371l27.72,0Z" style="fill:#fff;"/><path d="M33.542,7.795l0,15.339l13.658,0l0,-15.339l-13.658,0ZM29.178,27.501l0,-24.07l22.385,0l0,24.066l-22.385,0.004Z" style="fill:#fff;fill-rule:nonzero;"/><path d="M72.946,19.554l7.948,7.947l-6.175,-0.004l-7.944,-7.943l-4.81,0l0,7.947l-4.364,0l0,-24.07l16.926,0l4.296,4.296l0,11.827l-5.877,0ZM61.965,15.19l12.495,0l0,-5.655l-1.741,-1.74l-10.754,0l0,7.395Z" style="fill:#fff;fill-rule:nonzero;"/><rect x="198.941" y="3.431" width="2.772" height="24.07" style="fill:#fff;"/><path d="M0.638,22.397l0,-13.866l5.101,-5.1l17.906,0l0,4.364l-16.099,0l-2.544,2.544l0,10.25l2.544,2.545l16.099,0l0,4.363l-17.906,0l-5.101,-5.1Z" style="fill:#fff;fill-rule:nonzero;"/><path d="M83.988,27.501l0,-24.07l21.822,0l0,4.364l-17.459,0l0,5.489l12.961,0l0,4.364l-12.961,0l0,5.486l17.459,0l0,4.363l-21.822,0.004Z" style="fill:#fff;fill-rule:nonzero;"/><path d="M137.065,27.501l0,-18.558l-2.74,-2.74l-7.477,0l0,21.298l-2.772,0l0,-21.298l-10.217,0l0,21.298l-2.772,0l0,-24.07l24.386,0l4.364,4.364l0,19.706l-2.772,0Z" style="fill:#fff;fill-rule:nonzero;"/><path d="M167.187,27.501l-21.823,0l0,-24.07l21.823,0l0,2.772l-19.051,0l0,7.606l14.526,0l0,2.771l-14.526,0l0,8.149l19.051,0l0,2.772Z" style="fill:#fff;fill-rule:nonzero;"/><path d="M188.255,24.729l2.741,-2.74l0,-13.046l-2.741,-2.74l-13.786,0l0,18.526l13.786,0ZM193.767,23.137l-4.363,4.364l-17.707,0l0,-24.07l17.707,0l4.363,4.364l0,15.342Z" style="fill:#fff;fill-rule:nonzero;"/><path d="M207.315,3.431l17.707,0l4.364,4.364l0,19.702l-2.772,0l0,-9.895l-16.527,0l0,9.899l-2.772,0l0,-24.07ZM223.874,6.203l-13.787,0l0,8.627l16.527,0l0,-5.887l-2.74,-2.74Z" style="fill:#fff;fill-rule:nonzero;"/></g></svg>

<?xml version="1.0" standalone="no"?>
<!DOCTYPE svg PUBLIC "-//W3C//DTD SVG 1.1//EN" "http://www.w3.org/Graphics/SVG/1.1/DTD/svg11.dtd">
<svg width="100%" height="100%" viewBox="0 0 327 85" version="1.1" xmlns="http://www.w3.org/2000/svg" xmlns:xlink="http://www.w3.org/1999/xlink" xml:space="preserve" style="fill-rule:evenodd;clip-rule:evenodd;stroke-linejoin:round;stroke-miterlimit:1.41421;">
    <g>
        <path d="M302.025,12.715L314.457,12.715C315.183,13.45 315.882,14.21 316.554,14.995L316.554,23.424L313.804,23.424L313.804,15.465L310.68,15.465L310.68,23.424L307.93,23.424L307.93,15.465L304.775,15.465L304.775,23.424L302.025,23.424L302.025,12.715Z" style="fill:white;fill-rule:nonzero;"/>
        <path d="M242.311,42.369C242.311,19.083 261.188,0.206 284.474,0.206C296.198,0.206 306.804,4.992 314.447,12.715L302.025,12.715L302.025,23.424L304.775,23.424L304.775,15.465L307.93,15.465L307.93,23.424L310.68,23.424L310.68,15.465L313.804,15.465L313.804,23.424L316.554,23.424L316.554,15.008C322.841,22.372 326.636,31.927 326.636,42.369C326.636,65.655 307.76,84.532 284.474,84.532C261.188,84.532 242.311,65.655 242.311,42.369Z" style="fill:white;fill-rule:nonzero;"/>
        <path d="M263.218,35.265L271.408,27.075L302.115,27.075L302.115,35.351L274.395,35.351L272.025,37.722L272.025,50.308L274.395,52.679L302.115,52.679L302.115,61.069L271.408,61.069L263.218,52.878L263.218,35.265Z" style="fill:white;fill-rule:nonzero;"/>
        <path d="M33.542,7.795L33.542,23.134L47.2,23.134L47.2,7.795L33.542,7.795ZM29.178,27.501L29.178,3.431L51.563,3.431L51.563,27.497L29.178,27.501Z" style="fill:white;fill-rule:nonzero;"/>
        <path d="M72.946,19.554L80.894,27.501L74.719,27.497L66.775,19.554L61.965,19.554L61.965,27.501L57.601,27.501L57.601,3.431L74.527,3.431L78.823,7.727L78.823,19.554L72.946,19.554ZM61.965,15.19L74.46,15.19L74.46,9.535L72.719,7.795L61.965,7.795L61.965,15.19Z" style="fill:white;fill-rule:nonzero;"/>
        <rect x="198.941" y="3.431" width="2.772" height="24.07" style="fill:white;fill-rule:nonzero;"/>
        <path d="M0.638,22.397L0.638,8.531L5.739,3.431L23.645,3.431L23.645,7.795L7.546,7.795L5.002,10.339L5.002,20.589L7.546,23.134L23.645,23.134L23.645,27.497L5.739,27.497L0.638,22.397Z" style="fill:white;fill-rule:nonzero;"/>
        <path d="M83.988,27.501L83.988,3.431L105.81,3.431L105.81,7.795L88.351,7.795L88.351,13.284L101.312,13.284L101.312,17.648L88.351,17.648L88.351,23.134L105.81,23.134L105.81,27.497L83.988,27.501Z" style="fill:white;fill-rule:nonzero;"/>
        <path d="M137.065,27.501L137.065,8.943L134.325,6.203L126.848,6.203L126.848,27.501L124.076,27.501L124.076,6.203L113.859,6.203L113.859,27.501L111.087,27.501L111.087,3.431L135.473,3.431L139.837,7.795L139.837,27.501L137.065,27.501Z" style="fill:white;fill-rule:nonzero;"/>
        <path d="M167.187,27.501L145.364,27.501L145.364,3.431L167.187,3.431L167.187,6.203L148.136,6.203L148.136,13.809L162.662,13.809L162.662,16.58L148.136,16.58L148.136,24.729L167.187,24.729L167.187,27.501Z" style="fill:white;fill-rule:nonzero;"/>
        <path d="M188.255,24.729L190.996,21.989L190.996,8.943L188.255,6.203L174.469,6.203L174.469,24.729L188.255,24.729ZM193.767,23.137L189.404,27.501L171.697,27.501L171.697,3.431L189.404,3.431L193.767,7.795L193.767,23.137Z" style="fill:white;fill-rule:nonzero;"/>
        <path d="M207.315,3.431L225.022,3.431L229.386,7.795L229.386,27.497L226.614,27.497L226.614,17.602L210.087,17.602L210.087,27.501L207.315,27.501L207.315,3.431ZM223.874,6.203L210.087,6.203L210.087,14.83L226.614,14.83L226.614,8.943L223.874,6.203Z" style="fill:white;fill-rule:nonzero;"/>
    </g>
</svg>
